X:80
T:John O'Leary's
M:6/8
L:1/8
Q:120
R:Jig (Key of D)
K:D
"G"BdB BAF | "A"AFE EFE | "D"DFA def | "Bm"afe dBA |
"Em"BdB BAF | "A"AFE EFE|"D"DFA def |1 "Bm"edB B2A :|2 "Bm"edB B2d |:
"A"e2e edB | "D"AFF dFF | def afa | "G"baf "D"afa |
"G"baf "D"afa | "G"baf "A"edB | "D"def afe |1 "Bm"dBB B2d :|2 "Bm"dBB B2A |]
